X:1
T:Be a Light for Jesus
T:Be a Light for Jesus
T:Charles Davis Tillman
T:Robert O. Smith, 1903, alt.
T:Public Domain Courtesy of the Cyber Hymnal™
T:Public Domain Courtesy of the Cyber Hymnal™
C:Charles Davis Tillman
Z:Public Domain
Z:Courtesy of the Cyber Hymnal™
%%score ( 1 2 ) ( 3 4 )
L:1/8
Q:1/4=95
M:4/4
K:G
V:1 treble 
V:2 treble 
V:3 bass 
V:4 bass 
V:1
 [B,D][DB][DB][^C^A] [DB]2 [B,D][DB] | [CA]2 [CD]2 [CA]2 [B,G]2 | %2
w: 1.~Will you be a light in this|world for Je- sus?|
w: 2.~Will you be a light in this|world for Je- sus?|
w: 3.~Will you be a light in this|world for Je- sus?|
 [CE][CE][C^D][CE] [Ec]2 [CE][CF] | [CE]2 [C_E]2 [B,D]4 | [B,D][DB][DB][^C^A] [DB]2 [B,D][DB] | %5
w: Shed- ding forth your rays in this|vale of woe;|Bless- ing ma- ny lives who are|
w: He will help you shine as a|glow- ing flame;|You will have the smile of His|
w: Shin- ing forth His glo- ry and|love each day;|Yield- ing up your life in His|
 [CA]2 [CD]2 [CA]2 [B,G]2 | [CE][EG][DF][CE] [B,D]2 [Ec][Ec] | [DB]2 [CA]2 [B,G]4 || %8
w: in the sha- dows,|Waft- ing back the gloom wh- er-|e’er you go.|
w: joy and bless- ing,|As you bright- ly beam in His|pre- cious name.|
w: bless- èd ser- vice,|Giv- ing up your will to His|lov- ing sway.|
"^Refrain" [Gd][Ge][Gd][GB] [B,G]2 [DB]2 | E2 G2 B4 | [Gd][Ge][Gd][GB] [DG]2 [DB]2 | E2 A2 c4 | %12
w: ||||
w: Would you shine for Je- sus|ev- ery- where?|Scat- ter smiles and sun- shine|here and there?|
w: ||||
 [Ge][Ge][Ge][Ec] [EA]2 z2 | [Gd][Gd][Gd][GB] [DG]2 FF | D2 [Dc]2 [DB]2 [CA]2 | [B,G]4 z4 |] %16
w: ||||
w: Ev- ery- where you go|in this world of woe, Take the|sun- shine of His|love.|
w: ||||
V:2
 x8 | x8 | x8 | x8 | x8 | x8 | x8 | x8 || x8 | E2 G2 B4 | x8 | E2 A2 c4 | x8 | x6 FF | D2 x6 | %15
 x8 |] %16
V:3
 G,G,G,G, [G,,G,]2 [G,,G,][G,,G,] | [D,F,]2 [D,F,]2 [G,,G,]2 [G,,G,]2 | %2
 [C,G,][C,G,][C,G,][C,G,] [C,G,]2 [C,G,][C,G,] | [G,,G,]2 [G,,G,]2 [G,,G,]4 | %4
 G,G,G,G, [G,,G,]2 [G,,G,][G,,G,] | [D,F,]2 [D,F,]2 [G,,G,]2 [G,,G,]2 | %6
 [C,G,][C,G,][C,G,][C,G,] G,2 [C,G,][C,G,] | [D,G,]2 [D,F,]2 [G,,G,]4 || %8
 [G,B,][G,C][G,B,][G,D] [G,B,]2 G,2 | E,2 G,2 B,4 | [G,B,][G,C][G,B,][G,D] [G,B,]2 G,2 | %11
 E,2 A,2 C4 | [C,C][C,C][C,C][C,C] [C,C]2 z2 | [G,B,][G,B,][G,B,][G,D] [G,,G,B,]2 F,E, | %14
 D,2 [D,F,]2 [D,G,]2 [D,F,]2 | [G,,G,]4 z4 |] %16
V:4
 G,G,G,G, x4 | x8 | x8 | x8 | G,G,G,G, x4 | x8 | x4 G,2 x2 | x8 || x6 G,2 | E,2 G,2 B,4 | x6 G,2 | %11
 E,2 A,2 C4 | x8 | x6 F,E, | D,2 x6 | x8 |] %16

